(Generated by PartKam Version 0.05)

G20 G90 G40

(profile 1)
G0 Z0.15
T0 M6
G17
M3
G0 X2.9822 Y1.8431
G1 Z-0.1 F250
G1 X2.9599 Y1.9013 F250
G1 X2.9343 Y1.9578
G1 X2.9051 Y2.0126
G1 X2.8726 Y2.0657
G1 X2.8371 Y2.1166
G1 X2.7984 Y2.1652
G1 X2.7568 Y2.2116
G1 X2.7126 Y2.2551
G1 X2.6657 Y2.296
G1 X2.6165 Y2.3339
G1 X2.565 Y2.3687
G1 X2.5114 Y2.4003
G1 X2.456 Y2.4287
G1 X2.3992 Y2.4535
G1 X2.3409 Y2.4748
G1 X2.2813 Y2.4926
G1 X2.2207 Y2.5067
G1 X2.1594 Y2.5171
G1 X2.0976 Y2.5237
G1 X2.0356 Y2.5265
G1 X1.9734 Y2.5256
G1 X1.9114 Y2.5209
G1 X1.8498 Y2.5124
G1 X1.7889 Y2.5001
G1 X1.7288 Y2.4842
G1 X1.6699 Y2.4646
G1 X1.6121 Y2.4415
G1 X1.5559 Y2.4148
G1 X1.5015 Y2.3849
G1 X1.449 Y2.3517
G1 X1.3986 Y2.3154
G1 X1.3506 Y2.2759
G1 X1.3049 Y2.2336
G1 X1.262 Y2.1887
G1 X1.2219 Y2.1412
G1 X1.1848 Y2.0914
G1 X1.1507 Y2.0393
G1 X1.1199 Y1.9854
G1 X1.0925 Y1.9297
G1 X1.0685 Y1.8724
G1 X1.048 Y1.8136
G1 X1.0311 Y1.7538
G1 X1.018 Y1.6931
G1 X1.0086 Y1.6316
G1 X1.0029 Y1.5697
G1 X1.0009 Y1.5076
G1 X1.0029 Y1.4455
G1 X1.0086 Y1.3836
G1 X1.018 Y1.3221
G1 X1.0311 Y1.2615
G1 X1.048 Y1.2016
G1 X1.0685 Y1.1429
G1 X1.0925 Y1.0855
G1 X1.1199 Y1.0298
G1 X1.1507 Y0.9758
G1 X1.1848 Y0.9238
G1 X1.2219 Y0.8739
G1 X1.262 Y0.8265
G1 X1.3049 Y0.7816
G1 X1.3505 Y0.7393
G1 X1.3986 Y0.7
G1 X1.449 Y0.6636
G1 X1.5015 Y0.6303
G1 X1.556 Y0.6003
G1 X1.612 Y0.5737
G1 X1.6698 Y0.5507
G1 X1.7289 Y0.5311
G1 X1.7889 Y0.5151
G1 X1.8498 Y0.5029
G1 X1.9115 Y0.4943
G1 X1.9734 Y0.4896
G1 X2.0355 Y0.4887
G1 X2.0975 Y0.4915
G1 X2.1595 Y0.4982
G1 X2.2208 Y0.5085
G1 X2.2813 Y0.5226
G1 X2.3408 Y0.5403
G1 X2.3991 Y0.5617
G1 X2.4561 Y0.5867
G1 X2.5115 Y0.6149
G1 X2.565 Y0.6465
G1 X2.6165 Y0.6813
G1 X2.6656 Y0.7192
G1 X2.7125 Y0.7601
G1 X2.7569 Y0.8038
G1 X2.7984 Y0.85
G1 X2.8371 Y0.8986
G1 X2.8726 Y0.9495
G1 X2.9051 Y1.0026
G1 X2.9343 Y1.0575
G1 X2.9599 Y1.1141
G1 X2.9822 Y1.1722
G1 X3.0009 Y1.2314
G1 X3.0159 Y1.2917
G1 X3.0273 Y1.3528
G1 X3.0348 Y1.4145
G1 X3.0385 Y1.4765
G1 X3.0385 Y1.5388
G1 X3.0348 Y1.6008
G1 X3.0273 Y1.6624
G1 X3.0159 Y1.7235
G1 X3.0009 Y1.7838
G1 X2.9822 Y1.8431
G1 Z-0.2 F250
G1 X2.9599 Y1.9013 F250
G1 X2.9343 Y1.9578
G1 X2.9051 Y2.0126
G1 X2.8726 Y2.0657
G1 X2.8371 Y2.1166
G1 X2.7984 Y2.1652
G1 X2.7568 Y2.2116
G1 X2.7126 Y2.2551
G1 X2.6657 Y2.296
G1 X2.6165 Y2.3339
G1 X2.565 Y2.3687
G1 X2.5114 Y2.4003
G1 X2.456 Y2.4287
G1 X2.3992 Y2.4535
G1 X2.3409 Y2.4748
G1 X2.2813 Y2.4926
G1 X2.2207 Y2.5067
G1 X2.1594 Y2.5171
G1 X2.0976 Y2.5237
G1 X2.0356 Y2.5265
G1 X1.9734 Y2.5256
G1 X1.9114 Y2.5209
G1 X1.8498 Y2.5124
G1 X1.7889 Y2.5001
G1 X1.7288 Y2.4842
G1 X1.6699 Y2.4646
G1 X1.6121 Y2.4415
G1 X1.5559 Y2.4148
G1 X1.5015 Y2.3849
G1 X1.449 Y2.3517
G1 X1.3986 Y2.3154
G1 X1.3506 Y2.2759
G1 X1.3049 Y2.2336
G1 X1.262 Y2.1887
G1 X1.2219 Y2.1412
G1 X1.1848 Y2.0914
G1 X1.1507 Y2.0393
G1 X1.1199 Y1.9854
G1 X1.0925 Y1.9297
G1 X1.0685 Y1.8724
G1 X1.048 Y1.8136
G1 X1.0311 Y1.7538
G1 X1.018 Y1.6931
G1 X1.0086 Y1.6316
G1 X1.0029 Y1.5697
G1 X1.0009 Y1.5076
G1 X1.0029 Y1.4455
G1 X1.0086 Y1.3836
G1 X1.018 Y1.3221
G1 X1.0311 Y1.2615
G1 X1.048 Y1.2016
G1 X1.0685 Y1.1429
G1 X1.0925 Y1.0855
G1 X1.1199 Y1.0298
G1 X1.1507 Y0.9758
G1 X1.1848 Y0.9238
G1 X1.2219 Y0.8739
G1 X1.262 Y0.8265
G1 X1.3049 Y0.7816
G1 X1.3505 Y0.7393
G1 X1.3986 Y0.7
G1 X1.449 Y0.6636
G1 X1.5015 Y0.6303
G1 X1.556 Y0.6003
G1 X1.612 Y0.5737
G1 X1.6698 Y0.5507
G1 X1.7289 Y0.5311
G1 X1.7889 Y0.5151
G1 X1.8498 Y0.5029
G1 X1.9115 Y0.4943
G1 X1.9734 Y0.4896
G1 X2.0355 Y0.4887
G1 X2.0975 Y0.4915
G1 X2.1595 Y0.4982
G1 X2.2208 Y0.5085
G1 X2.2813 Y0.5226
G1 X2.3408 Y0.5403
G1 X2.3991 Y0.5617
G1 X2.4561 Y0.5867
G1 X2.5115 Y0.6149
G1 X2.565 Y0.6465
G1 X2.6165 Y0.6813
G1 X2.6656 Y0.7192
G1 X2.7125 Y0.7601
G1 X2.7569 Y0.8038
G1 X2.7984 Y0.85
G1 X2.8371 Y0.8986
G1 X2.8726 Y0.9495
G1 X2.9051 Y1.0026
G1 X2.9343 Y1.0575
G1 X2.9599 Y1.1141
G1 X2.9822 Y1.1722
G1 X3.0009 Y1.2314
G1 X3.0159 Y1.2917
G1 X3.0273 Y1.3528
G1 X3.0348 Y1.4145
G1 X3.0385 Y1.4765
G1 X3.0385 Y1.5388
G1 X3.0348 Y1.6008
G1 X3.0273 Y1.6624
G1 X3.0159 Y1.7235
G1 X3.0009 Y1.7838
G1 X2.9822 Y1.8431
G1 Z-0.3 F250
G1 X2.9599 Y1.9013 F250
G1 X2.9343 Y1.9578
G1 X2.9051 Y2.0126
G1 X2.8726 Y2.0657
G1 X2.8371 Y2.1166
G1 X2.7984 Y2.1652
G1 X2.7568 Y2.2116
G1 X2.7126 Y2.2551
G1 X2.6657 Y2.296
G1 X2.6165 Y2.3339
G1 X2.565 Y2.3687
G1 X2.5114 Y2.4003
G1 X2.456 Y2.4287
G1 X2.3992 Y2.4535
G1 X2.3409 Y2.4748
G1 X2.2813 Y2.4926
G1 X2.2207 Y2.5067
G1 X2.1594 Y2.5171
G1 X2.0976 Y2.5237
G1 X2.0356 Y2.5265
G1 X1.9734 Y2.5256
G1 X1.9114 Y2.5209
G1 X1.8498 Y2.5124
G1 X1.7889 Y2.5001
G1 X1.7288 Y2.4842
G1 X1.6699 Y2.4646
G1 X1.6121 Y2.4415
G1 X1.5559 Y2.4148
G1 X1.5015 Y2.3849
G1 X1.449 Y2.3517
G1 X1.3986 Y2.3154
G1 X1.3506 Y2.2759
G1 X1.3049 Y2.2336
G1 X1.262 Y2.1887
G1 X1.2219 Y2.1412
G1 X1.1848 Y2.0914
G1 X1.1507 Y2.0393
G1 X1.1199 Y1.9854
G1 X1.0925 Y1.9297
G1 X1.0685 Y1.8724
G1 X1.048 Y1.8136
G1 X1.0311 Y1.7538
G1 X1.018 Y1.6931
G1 X1.0086 Y1.6316
G1 X1.0029 Y1.5697
G1 X1.0009 Y1.5076
G1 X1.0029 Y1.4455
G1 X1.0086 Y1.3836
G1 X1.018 Y1.3221
G1 X1.0311 Y1.2615
G1 X1.048 Y1.2016
G1 X1.0685 Y1.1429
G1 X1.0925 Y1.0855
G1 X1.1199 Y1.0298
G1 X1.1507 Y0.9758
G1 X1.1848 Y0.9238
G1 X1.2219 Y0.8739
G1 X1.262 Y0.8265
G1 X1.3049 Y0.7816
G1 X1.3505 Y0.7393
G1 X1.3986 Y0.7
G1 X1.449 Y0.6636
G1 X1.5015 Y0.6303
G1 X1.556 Y0.6003
G1 X1.612 Y0.5737
G1 X1.6698 Y0.5507
G1 X1.7289 Y0.5311
G1 X1.7889 Y0.5151
G1 X1.8498 Y0.5029
G1 X1.9115 Y0.4943
G1 X1.9734 Y0.4896
G1 X2.0355 Y0.4887
G1 X2.0975 Y0.4915
G1 X2.1595 Y0.4982
G1 X2.2208 Y0.5085
G1 X2.2813 Y0.5226
G1 X2.3408 Y0.5403
G1 X2.3991 Y0.5617
G1 X2.4561 Y0.5867
G1 X2.5115 Y0.6149
G1 X2.565 Y0.6465
G1 X2.6165 Y0.6813
G1 X2.6656 Y0.7192
G1 X2.7125 Y0.7601
G1 X2.7569 Y0.8038
G1 X2.7984 Y0.85
G1 X2.8371 Y0.8986
G1 X2.8726 Y0.9495
G1 X2.9051 Y1.0026
G1 X2.9343 Y1.0575
G1 X2.9599 Y1.1141
G1 X2.9822 Y1.1722
G1 X3.0009 Y1.2314
G1 X3.0159 Y1.2917
G1 X3.0273 Y1.3528
G1 X3.0348 Y1.4145
G1 X3.0385 Y1.4765
G1 X3.0385 Y1.5388
G1 X3.0348 Y1.6008
G1 X3.0273 Y1.6624
G1 X3.0159 Y1.7235
G1 X3.0009 Y1.7838
G1 X2.9822 Y1.8431
G1 Z-0.4 F250
G1 X2.9599 Y1.9013 F250
G1 X2.9343 Y1.9578
G1 X2.9051 Y2.0126
G1 X2.8726 Y2.0657
G1 X2.8371 Y2.1166
G1 X2.7984 Y2.1652
G1 X2.7568 Y2.2116
G1 X2.7126 Y2.2551
G1 X2.6657 Y2.296
G1 X2.6165 Y2.3339
G1 X2.565 Y2.3687
G1 X2.5114 Y2.4003
G1 X2.456 Y2.4287
G1 X2.3992 Y2.4535
G1 X2.3409 Y2.4748
G1 X2.2813 Y2.4926
G1 X2.2207 Y2.5067
G1 X2.1594 Y2.5171
G1 X2.0976 Y2.5237
G1 X2.0356 Y2.5265
G1 X1.9734 Y2.5256
G1 X1.9114 Y2.5209
G1 X1.8498 Y2.5124
G1 X1.7889 Y2.5001
G1 X1.7288 Y2.4842
G1 X1.6699 Y2.4646
G1 X1.6121 Y2.4415
G1 X1.5559 Y2.4148
G1 X1.5015 Y2.3849
G1 X1.449 Y2.3517
G1 X1.3986 Y2.3154
G1 X1.3506 Y2.2759
G1 X1.3049 Y2.2336
G1 X1.262 Y2.1887
G1 X1.2219 Y2.1412
G1 X1.1848 Y2.0914
G1 X1.1507 Y2.0393
G1 X1.1199 Y1.9854
G1 X1.0925 Y1.9297
G1 X1.0685 Y1.8724
G1 X1.048 Y1.8136
G1 X1.0311 Y1.7538
G1 X1.018 Y1.6931
G1 X1.0086 Y1.6316
G1 X1.0029 Y1.5697
G1 X1.0009 Y1.5076
G1 X1.0029 Y1.4455
G1 X1.0086 Y1.3836
G1 X1.018 Y1.3221
G1 X1.0311 Y1.2615
G1 X1.048 Y1.2016
G1 X1.0685 Y1.1429
G1 X1.0925 Y1.0855
G1 X1.1199 Y1.0298
G1 X1.1507 Y0.9758
G1 X1.1848 Y0.9238
G1 X1.2219 Y0.8739
G1 X1.262 Y0.8265
G1 X1.3049 Y0.7816
G1 X1.3505 Y0.7393
G1 X1.3986 Y0.7
G1 X1.449 Y0.6636
G1 X1.5015 Y0.6303
G1 X1.556 Y0.6003
G1 X1.612 Y0.5737
G1 X1.6698 Y0.5507
G1 X1.7289 Y0.5311
G1 X1.7889 Y0.5151
G1 X1.8498 Y0.5029
G1 X1.9115 Y0.4943
G1 X1.9734 Y0.4896
G1 X2.0355 Y0.4887
G1 X2.0975 Y0.4915
G1 X2.1595 Y0.4982
G1 X2.2208 Y0.5085
G1 X2.2813 Y0.5226
G1 X2.3408 Y0.5403
G1 X2.3991 Y0.5617
G1 X2.4561 Y0.5867
G1 X2.5115 Y0.6149
G1 X2.565 Y0.6465
G1 X2.6165 Y0.6813
G1 X2.6656 Y0.7192
G1 X2.7125 Y0.7601
G1 X2.7569 Y0.8038
G1 X2.7984 Y0.85
G1 X2.8371 Y0.8986
G1 X2.8726 Y0.9495
G1 X2.9051 Y1.0026
G1 X2.9343 Y1.0575
G1 X2.9599 Y1.1141
G1 X2.9822 Y1.1722
G1 X3.0009 Y1.2314
G1 X3.0159 Y1.2917
G1 X3.0273 Y1.3528
G1 X3.0348 Y1.4145
G1 X3.0385 Y1.4765
G1 X3.0385 Y1.5388
G1 X3.0348 Y1.6008
G1 X3.0273 Y1.6624
G1 X3.0159 Y1.7235
G1 X3.0009 Y1.7838
G1 X2.9822 Y1.8431
G1 Z-0.5 F250
G1 X2.9599 Y1.9013 F250
G1 X2.9343 Y1.9578
G1 X2.9051 Y2.0126
G1 X2.8726 Y2.0657
G1 X2.8371 Y2.1166
G1 X2.7984 Y2.1652
G1 X2.7568 Y2.2116
G1 X2.7126 Y2.2551
G1 X2.6657 Y2.296
G1 X2.6165 Y2.3339
G1 X2.565 Y2.3687
G1 X2.5114 Y2.4003
G1 X2.456 Y2.4287
G1 X2.3992 Y2.4535
G1 X2.3409 Y2.4748
G1 X2.2813 Y2.4926
G1 X2.2207 Y2.5067
G1 X2.1594 Y2.5171
G1 X2.0976 Y2.5237
G1 X2.0356 Y2.5265
G1 X1.9734 Y2.5256
G1 X1.9114 Y2.5209
G1 X1.8498 Y2.5124
G1 X1.7889 Y2.5001
G1 X1.7288 Y2.4842
G1 X1.6699 Y2.4646
G1 X1.6121 Y2.4415
G1 X1.5559 Y2.4148
G1 X1.5015 Y2.3849
G1 X1.449 Y2.3517
G1 X1.3986 Y2.3154
G1 X1.3506 Y2.2759
G1 X1.3049 Y2.2336
G1 X1.262 Y2.1887
G1 X1.2219 Y2.1412
G1 X1.1848 Y2.0914
G1 X1.1507 Y2.0393
G1 X1.1199 Y1.9854
G1 X1.0925 Y1.9297
G1 X1.0685 Y1.8724
G1 X1.048 Y1.8136
G1 X1.0311 Y1.7538
G1 X1.018 Y1.6931
G1 X1.0086 Y1.6316
G1 X1.0029 Y1.5697
G1 X1.0009 Y1.5076
G1 X1.0029 Y1.4455
G1 X1.0086 Y1.3836
G1 X1.018 Y1.3221
G1 X1.0311 Y1.2615
G1 X1.048 Y1.2016
G1 X1.0685 Y1.1429
G1 X1.0925 Y1.0855
G1 X1.1199 Y1.0298
G1 X1.1507 Y0.9758
G1 X1.1848 Y0.9238
G1 X1.2219 Y0.8739
G1 X1.262 Y0.8265
G1 X1.3049 Y0.7816
G1 X1.3505 Y0.7393
G1 X1.3986 Y0.7
G1 X1.449 Y0.6636
G1 X1.5015 Y0.6303
G1 X1.556 Y0.6003
G1 X1.612 Y0.5737
G1 X1.6698 Y0.5507
G1 X1.7289 Y0.5311
G1 X1.7889 Y0.5151
G1 X1.8498 Y0.5029
G1 X1.9115 Y0.4943
G1 X1.9734 Y0.4896
G1 X2.0355 Y0.4887
G1 X2.0975 Y0.4915
G1 X2.1595 Y0.4982
G1 X2.2208 Y0.5085
G1 X2.2813 Y0.5226
G1 X2.3408 Y0.5403
G1 X2.3991 Y0.5617
G1 X2.4561 Y0.5867
G1 X2.5115 Y0.6149
G1 X2.565 Y0.6465
G1 X2.6165 Y0.6813
G1 X2.6656 Y0.7192
G1 X2.7125 Y0.7601
G1 X2.7569 Y0.8038
G1 X2.7984 Y0.85
G1 X2.8371 Y0.8986
G1 X2.8726 Y0.9495
G1 X2.9051 Y1.0026
G1 X2.9343 Y1.0575
G1 X2.9599 Y1.1141
G1 X2.9822 Y1.1722
G1 X3.0009 Y1.2314
G1 X3.0159 Y1.2917
G1 X3.0273 Y1.3528
G1 X3.0348 Y1.4145
G1 X3.0385 Y1.4765
G1 X3.0385 Y1.5388
G1 X3.0348 Y1.6008
G1 X3.0273 Y1.6624
G1 X3.0159 Y1.7235
G1 X3.0009 Y1.7838
G1 X2.9822 Y1.8431
G1 Z-0.6 F250
G1 X2.9599 Y1.9013 F250
G1 X2.9343 Y1.9578
G1 X2.9051 Y2.0126
G1 X2.8726 Y2.0657
G1 X2.8371 Y2.1166
G1 X2.7984 Y2.1652
G1 X2.7568 Y2.2116
G1 X2.7126 Y2.2551
G1 X2.6657 Y2.296
G1 X2.6165 Y2.3339
G1 X2.565 Y2.3687
G1 X2.5114 Y2.4003
G1 X2.456 Y2.4287
G1 X2.3992 Y2.4535
G1 X2.3409 Y2.4748
G1 X2.2813 Y2.4926
G1 X2.2207 Y2.5067
G1 X2.1594 Y2.5171
G1 X2.0976 Y2.5237
G1 X2.0356 Y2.5265
G1 X1.9734 Y2.5256
G1 X1.9114 Y2.5209
G1 X1.8498 Y2.5124
G1 X1.7889 Y2.5001
G1 X1.7288 Y2.4842
G1 X1.6699 Y2.4646
G1 X1.6121 Y2.4415
G1 X1.5559 Y2.4148
G1 X1.5015 Y2.3849
G1 X1.449 Y2.3517
G1 X1.3986 Y2.3154
G1 X1.3506 Y2.2759
G1 X1.3049 Y2.2336
G1 X1.262 Y2.1887
G1 X1.2219 Y2.1412
G1 X1.1848 Y2.0914
G1 X1.1507 Y2.0393
G1 X1.1199 Y1.9854
G1 X1.0925 Y1.9297
G1 X1.0685 Y1.8724
G1 X1.048 Y1.8136
G1 X1.0311 Y1.7538
G1 X1.018 Y1.6931
G1 X1.0086 Y1.6316
G1 X1.0029 Y1.5697
G1 X1.0009 Y1.5076
G1 X1.0029 Y1.4455
G1 X1.0086 Y1.3836
G1 X1.018 Y1.3221
G1 X1.0311 Y1.2615
G1 X1.048 Y1.2016
G1 X1.0685 Y1.1429
G1 X1.0925 Y1.0855
G1 X1.1199 Y1.0298
G1 X1.1507 Y0.9758
G1 X1.1848 Y0.9238
G1 X1.2219 Y0.8739
G1 X1.262 Y0.8265
G1 X1.3049 Y0.7816
G1 X1.3505 Y0.7393
G1 X1.3986 Y0.7
G1 X1.449 Y0.6636
G1 X1.5015 Y0.6303
G1 X1.556 Y0.6003
G1 X1.612 Y0.5737
G1 X1.6698 Y0.5507
G1 X1.7289 Y0.5311
G1 X1.7889 Y0.5151
G1 X1.8498 Y0.5029
G1 X1.9115 Y0.4943
G1 X1.9734 Y0.4896
G1 X2.0355 Y0.4887
G1 X2.0975 Y0.4915
G1 X2.1595 Y0.4982
G1 X2.2208 Y0.5085
G1 X2.2813 Y0.5226
G1 X2.3408 Y0.5403
G1 X2.3991 Y0.5617
G1 X2.4561 Y0.5867
G1 X2.5115 Y0.6149
G1 X2.565 Y0.6465
G1 X2.6165 Y0.6813
G1 X2.6656 Y0.7192
G1 X2.7125 Y0.7601
G1 X2.7569 Y0.8038
G1 X2.7984 Y0.85
G1 X2.8371 Y0.8986
G1 X2.8726 Y0.9495
G1 X2.9051 Y1.0026
G1 X2.9343 Y1.0575
G1 X2.9599 Y1.1141
G1 X2.9822 Y1.1722
G1 X3.0009 Y1.2314
G1 X3.0159 Y1.2917
G1 X3.0273 Y1.3528
G1 X3.0348 Y1.4145
G1 X3.0385 Y1.4765
G1 X3.0385 Y1.5388
G1 X3.0348 Y1.6008
G1 X3.0273 Y1.6624
G1 X3.0159 Y1.7235
G1 X3.0009 Y1.7838
G1 X2.9822 Y1.8431
G1 Z-0.7 F250
G1 X2.9599 Y1.9013 F250
G1 X2.9343 Y1.9578
G1 X2.9051 Y2.0126
G1 X2.8726 Y2.0657
G1 X2.8371 Y2.1166
G1 X2.7984 Y2.1652
G1 X2.7568 Y2.2116
G1 X2.7126 Y2.2551
G1 X2.6657 Y2.296
G1 X2.6165 Y2.3339
G1 X2.565 Y2.3687
G1 X2.5114 Y2.4003
G1 X2.456 Y2.4287
G1 X2.3992 Y2.4535
G1 X2.3409 Y2.4748
G1 X2.2813 Y2.4926
G1 X2.2207 Y2.5067
G1 X2.1594 Y2.5171
G1 X2.0976 Y2.5237
G1 X2.0356 Y2.5265
G1 X1.9734 Y2.5256
G1 X1.9114 Y2.5209
G1 X1.8498 Y2.5124
G1 X1.7889 Y2.5001
G1 X1.7288 Y2.4842
G1 X1.6699 Y2.4646
G1 X1.6121 Y2.4415
G1 X1.5559 Y2.4148
G1 X1.5015 Y2.3849
G1 X1.449 Y2.3517
G1 X1.3986 Y2.3154
G1 X1.3506 Y2.2759
G1 X1.3049 Y2.2336
G1 X1.262 Y2.1887
G1 X1.2219 Y2.1412
G1 X1.1848 Y2.0914
G1 X1.1507 Y2.0393
G1 X1.1199 Y1.9854
G1 X1.0925 Y1.9297
G1 X1.0685 Y1.8724
G1 X1.048 Y1.8136
G1 X1.0311 Y1.7538
G1 X1.018 Y1.6931
G1 X1.0086 Y1.6316
G1 X1.0029 Y1.5697
G1 X1.0009 Y1.5076
G1 X1.0029 Y1.4455
G1 X1.0086 Y1.3836
G1 X1.018 Y1.3221
G1 X1.0311 Y1.2615
G1 X1.048 Y1.2016
G1 X1.0685 Y1.1429
G1 X1.0925 Y1.0855
G1 X1.1199 Y1.0298
G1 X1.1507 Y0.9758
G1 X1.1848 Y0.9238
G1 X1.2219 Y0.8739
G1 X1.262 Y0.8265
G1 X1.3049 Y0.7816
G1 X1.3505 Y0.7393
G1 X1.3986 Y0.7
G1 X1.449 Y0.6636
G1 X1.5015 Y0.6303
G1 X1.556 Y0.6003
G1 X1.612 Y0.5737
G1 X1.6698 Y0.5507
G1 X1.7289 Y0.5311
G1 X1.7889 Y0.5151
G1 X1.8498 Y0.5029
G1 X1.9115 Y0.4943
G1 X1.9734 Y0.4896
G1 X2.0355 Y0.4887
G1 X2.0975 Y0.4915
G1 X2.1595 Y0.4982
G1 X2.2208 Y0.5085
G1 X2.2813 Y0.5226
G1 X2.3408 Y0.5403
G1 X2.3991 Y0.5617
G1 X2.4561 Y0.5867
G1 X2.5115 Y0.6149
G1 X2.565 Y0.6465
G1 X2.6165 Y0.6813
G1 X2.6656 Y0.7192
G1 X2.7125 Y0.7601
G1 X2.7569 Y0.8038
G1 X2.7984 Y0.85
G1 X2.8371 Y0.8986
G1 X2.8726 Y0.9495
G1 X2.9051 Y1.0026
G1 X2.9343 Y1.0575
G1 X2.9599 Y1.1141
G1 X2.9822 Y1.1722
G1 X3.0009 Y1.2314
G1 X3.0159 Y1.2917
G1 X3.0273 Y1.3528
G1 X3.0348 Y1.4145
G1 X3.0385 Y1.4765
G1 X3.0385 Y1.5388
G1 X3.0348 Y1.6008
G1 X3.0273 Y1.6624
G1 X3.0159 Y1.7235
G1 X3.0009 Y1.7838
G1 X2.9822 Y1.8431
G1 Z-0.8 F250
G1 X2.9599 Y1.9013 F250
G1 X2.9343 Y1.9578
G1 X2.9051 Y2.0126
G1 X2.8726 Y2.0657
G1 X2.8371 Y2.1166
G1 X2.7984 Y2.1652
G1 X2.7568 Y2.2116
G1 X2.7126 Y2.2551
G1 X2.6657 Y2.296
G1 X2.6165 Y2.3339
G1 X2.565 Y2.3687
G1 X2.5114 Y2.4003
G1 X2.456 Y2.4287
G1 X2.3992 Y2.4535
G1 X2.3409 Y2.4748
G1 X2.2813 Y2.4926
G1 X2.2207 Y2.5067
G1 X2.1594 Y2.5171
G1 X2.0976 Y2.5237
G1 X2.0356 Y2.5265
G1 X1.9734 Y2.5256
G1 X1.9114 Y2.5209
G1 X1.8498 Y2.5124
G1 X1.7889 Y2.5001
G1 X1.7288 Y2.4842
G1 X1.6699 Y2.4646
G1 X1.6121 Y2.4415
G1 X1.5559 Y2.4148
G1 X1.5015 Y2.3849
G1 X1.449 Y2.3517
G1 X1.3986 Y2.3154
G1 X1.3506 Y2.2759
G1 X1.3049 Y2.2336
G1 X1.262 Y2.1887
G1 X1.2219 Y2.1412
G1 X1.1848 Y2.0914
G1 X1.1507 Y2.0393
G1 X1.1199 Y1.9854
G1 X1.0925 Y1.9297
G1 X1.0685 Y1.8724
G1 X1.048 Y1.8136
G1 X1.0311 Y1.7538
G1 X1.018 Y1.6931
G1 X1.0086 Y1.6316
G1 X1.0029 Y1.5697
G1 X1.0009 Y1.5076
G1 X1.0029 Y1.4455
G1 X1.0086 Y1.3836
G1 X1.018 Y1.3221
G1 X1.0311 Y1.2615
G1 X1.048 Y1.2016
G1 X1.0685 Y1.1429
G1 X1.0925 Y1.0855
G1 X1.1199 Y1.0298
G1 X1.1507 Y0.9758
G1 X1.1848 Y0.9238
G1 X1.2219 Y0.8739
G1 X1.262 Y0.8265
G1 X1.3049 Y0.7816
G1 X1.3505 Y0.7393
G1 X1.3986 Y0.7
G1 X1.449 Y0.6636
G1 X1.5015 Y0.6303
G1 X1.556 Y0.6003
G1 X1.612 Y0.5737
G1 X1.6698 Y0.5507
G1 X1.7289 Y0.5311
G1 X1.7889 Y0.5151
G1 X1.8498 Y0.5029
G1 X1.9115 Y0.4943
G1 X1.9734 Y0.4896
G1 X2.0355 Y0.4887
G1 X2.0975 Y0.4915
G1 X2.1595 Y0.4982
G1 X2.2208 Y0.5085
G1 X2.2813 Y0.5226
G1 X2.3408 Y0.5403
G1 X2.3991 Y0.5617
G1 X2.4561 Y0.5867
G1 X2.5115 Y0.6149
G1 X2.565 Y0.6465
G1 X2.6165 Y0.6813
G1 X2.6656 Y0.7192
G1 X2.7125 Y0.7601
G1 X2.7569 Y0.8038
G1 X2.7984 Y0.85
G1 X2.8371 Y0.8986
G1 X2.8726 Y0.9495
G1 X2.9051 Y1.0026
G1 X2.9343 Y1.0575
G1 X2.9599 Y1.1141
G1 X2.9822 Y1.1722
G1 X3.0009 Y1.2314
G1 X3.0159 Y1.2917
G1 X3.0273 Y1.3528
G1 X3.0348 Y1.4145
G1 X3.0385 Y1.4765
G1 X3.0385 Y1.5388
G1 X3.0348 Y1.6008
G1 X3.0273 Y1.6624
G1 X3.0159 Y1.7235
G1 X3.0009 Y1.7838
G1 X2.9822 Y1.8431

(profile 2)
G0 Z0.15
G0 X0.0474 Y0.0018
G1 Z-0.1 F250
G1 X3.9926 Y0.0018 F250
G3 X4.1176 Y0.1268 I0 J0.125
G1 X4.1176 Y0.4818
G3 X3.9926 Y0.6068 I-0.125 J0
G1 X3.6416 Y0.6068
G1 X3.6231 Y0.6081
G1 X3.6088 Y0.6109
G1 X3.5948 Y0.6157
G1 X3.5818 Y0.6221
G1 X3.5699 Y0.6301
G1 X3.5588 Y0.6398
G1 X3.549 Y0.6509
G1 X3.541 Y0.6628
G1 X3.5346 Y0.6758
G1 X3.5299 Y0.6899
G1 X3.527 Y0.7042
G1 X3.5258 Y0.7227
G1 X3.5258 Y1.5076
G3 X3.5257 Y1.511 I-0.125 J0
G1 X3.5237 Y1.5871
G3 X3.5233 Y1.594 I-0.125 J-0.0034
G1 X3.517 Y1.6698
G3 X3.5162 Y1.6768 I-0.1246 J-0.0103
G1 X3.5057 Y1.7521
G3 X3.5046 Y1.7587 I-0.1238 J-0.0173
G1 X3.4901 Y1.8334
G3 X3.4886 Y1.8404 I-0.1227 J-0.0238
G1 X3.4699 Y1.9141
G3 X3.468 Y1.9207 I-0.1212 J-0.0308
G1 X3.4453 Y1.9933
G3 X3.443 Y1.9998 I-0.1193 J-0.0373
G1 X3.4164 Y2.071
G3 X3.4138 Y2.0774 I-0.1171 J-0.0438
G1 X3.3833 Y2.1471
G3 X3.3803 Y2.1535 I-0.1145 J-0.0501
G1 X3.3458 Y2.2214
G3 X3.3426 Y2.2274 I-0.1115 J-0.0565
G1 X3.3046 Y2.2932
G3 X3.3011 Y2.299 I-0.1083 J-0.0625
G1 X3.2595 Y2.3627
G3 X3.2554 Y2.3686 I-0.1047 J-0.0683
G1 X3.2102 Y2.4299
G3 X3.2061 Y2.4352 I-0.1006 J-0.0741
G1 X3.1578 Y2.4939
G3 X3.1533 Y2.4991 I-0.0965 J-0.0794
G1 X3.1017 Y2.5551
G3 X3.0969 Y2.5601 I-0.092 J-0.0847
G1 X3.0423 Y2.6131
G3 X3.0373 Y2.6177 I-0.0871 J-0.0896
G1 X2.98 Y2.6677
G3 X2.9746 Y2.6722 I-0.0821 J-0.0942
G1 X2.9145 Y2.7189
G3 X2.9089 Y2.723 I-0.0768 J-0.0986
G1 X2.8465 Y2.7663
G3 X2.8407 Y2.7701 I-0.0712 J-0.1027
G1 X2.7758 Y2.81
G3 X2.7698 Y2.8134 I-0.0654 J-0.1065
G1 X2.7029 Y2.8496
G3 X2.6969 Y2.8526 I-0.0594 J-0.11
G1 X2.6281 Y2.8851
G3 X2.6218 Y2.8879 I-0.0534 J-0.113
G1 X2.5513 Y2.9166
G3 X2.5448 Y2.919 I-0.0471 J-0.1158
G1 X2.4727 Y2.9437
G3 X2.4662 Y2.9458 I-0.0405 J-0.1182
G1 X2.393 Y2.9665
G3 X2.3864 Y2.9681 I-0.034 J-0.1203
G1 X2.3121 Y2.9848
G3 X2.3054 Y2.9861 I-0.0274 J-0.122
G1 X2.2303 Y2.9987
G3 X2.2234 Y2.9997 I-0.0206 J-0.1233
G1 X2.1477 Y3.008
G3 X2.1409 Y3.0085 I-0.0137 J-0.1242
G1 X2.065 Y3.0128
G3 X2.0581 Y3.013 I-0.0069 J-0.1248
G1 X1.982 Y3.013
G3 X1.975 Y3.0128 I0 J-0.125
G1 X1.899 Y3.0086
G3 X1.8923 Y3.008 I0.0069 J-0.1248
G1 X1.8167 Y2.9997
G3 X1.8098 Y2.9987 I0.0137 J-0.1242
G1 X1.7346 Y2.9861
G3 X1.7278 Y2.9848 I0.0206 J-0.1233
G1 X1.6536 Y2.9681
G3 X1.6471 Y2.9665 I0.0274 J-0.122
G1 X1.5738 Y2.9458
G3 X1.5672 Y2.9437 I0.0339 J-0.1203
G1 X1.4953 Y2.919
G3 X1.4887 Y2.9166 I0.0406 J-0.1182
G1 X1.4182 Y2.8879
G3 X1.412 Y2.8852 I0.0471 J-0.1158
G1 X1.3432 Y2.8527
G3 X1.3371 Y2.8496 I0.0533 J-0.1131
G1 X1.2701 Y2.8134
G3 X1.2641 Y2.81 I0.0594 J-0.11
G1 X1.1993 Y2.7701
G3 X1.1935 Y2.7663 I0.0654 J-0.1065
G1 X1.131 Y2.723
G3 X1.1255 Y2.7189 I0.0712 J-0.1027
G1 X1.0654 Y2.6722
G3 X1.06 Y2.6677 I0.0768 J-0.0986
G1 X1.0026 Y2.6177
G3 X0.9975 Y2.613 I0.0821 J-0.0942
G1 X0.9431 Y2.56
G3 X0.9383 Y2.5551 I0.0872 J-0.0895
G1 X0.8868 Y2.4991
G3 X0.8823 Y2.494 I0.092 J-0.0847
G1 X0.8339 Y2.4353
G3 X0.8296 Y2.4298 I0.0964 J-0.0795
G1 X0.7846 Y2.3685
G3 X0.7807 Y2.3629 I0.1007 J-0.074
G1 X0.739 Y2.2991
G3 X0.7354 Y2.2932 I0.1046 J-0.0684
G1 X0.6973 Y2.2274
G3 X0.6941 Y2.2213 I0.1083 J-0.0625
G1 X0.6597 Y2.1534
G3 X0.6568 Y2.1473 I0.1116 J-0.0564
G1 X0.6262 Y2.0775
G3 X0.6236 Y2.071 I0.1144 J-0.0503
G1 X0.5969 Y1.9998
G3 X0.5947 Y1.9933 I0.1171 J-0.0438
G1 X0.572 Y1.9207
G3 X0.5701 Y1.9139 I0.1193 J-0.0373
G1 X0.5514 Y1.8402
G3 X0.55 Y1.8336 I0.1212 J-0.0306
G1 X0.5353 Y1.7589
G3 X0.5342 Y1.7521 I0.1227 J-0.024
G1 X0.5237 Y1.6768
G3 X0.5229 Y1.6698 I0.1238 J-0.0173
G1 X0.5167 Y1.594
G3 X0.5163 Y1.5871 I0.1246 J-0.0103
G1 X0.5142 Y1.511
G3 X0.5142 Y1.5076 I0.125 J-0.0034
G1 X0.5142 Y0.7227
G1 X0.5129 Y0.7042
G1 X0.51 Y0.6897
G1 X0.5054 Y0.6758
G1 X0.499 Y0.663
G1 X0.4909 Y0.6508
G1 X0.4812 Y0.6397
G1 X0.4703 Y0.6301
G1 X0.4583 Y0.6221
G1 X0.4451 Y0.6157
G1 X0.4312 Y0.6109
G1 X0.4169 Y0.6081
G1 X0.3983 Y0.6068
G1 X0.0474 Y0.6068
G3 X-0.0776 Y0.4818 I0 J-0.125
G1 X-0.0776 Y0.1268
G3 X0.0474 Y0.0018 I0.125 J0
G1 Z-0.2 F250
G1 X3.9926 Y0.0018 F250
G3 X4.1176 Y0.1268 I0 J0.125
G1 X4.1176 Y0.4818
G3 X3.9926 Y0.6068 I-0.125 J0
G1 X3.6416 Y0.6068
G1 X3.6231 Y0.6081
G1 X3.6088 Y0.6109
G1 X3.5948 Y0.6157
G1 X3.5818 Y0.6221
G1 X3.5699 Y0.6301
G1 X3.5588 Y0.6398
G1 X3.549 Y0.6509
G1 X3.541 Y0.6628
G1 X3.5346 Y0.6758
G1 X3.5299 Y0.6899
G1 X3.527 Y0.7042
G1 X3.5258 Y0.7227
G1 X3.5258 Y1.5076
G3 X3.5257 Y1.511 I-0.125 J0
G1 X3.5237 Y1.5871
G3 X3.5233 Y1.594 I-0.125 J-0.0034
G1 X3.517 Y1.6698
G3 X3.5162 Y1.6768 I-0.1246 J-0.0103
G1 X3.5057 Y1.7521
G3 X3.5046 Y1.7587 I-0.1238 J-0.0173
G1 X3.4901 Y1.8334
G3 X3.4886 Y1.8404 I-0.1227 J-0.0238
G1 X3.4699 Y1.9141
G3 X3.468 Y1.9207 I-0.1212 J-0.0308
G1 X3.4453 Y1.9933
G3 X3.443 Y1.9998 I-0.1193 J-0.0373
G1 X3.4164 Y2.071
G3 X3.4138 Y2.0774 I-0.1171 J-0.0438
G1 X3.3833 Y2.1471
G3 X3.3803 Y2.1535 I-0.1145 J-0.0501
G1 X3.3458 Y2.2214
G3 X3.3426 Y2.2274 I-0.1115 J-0.0565
G1 X3.3046 Y2.2932
G3 X3.3011 Y2.299 I-0.1083 J-0.0625
G1 X3.2595 Y2.3627
G3 X3.2554 Y2.3686 I-0.1047 J-0.0683
G1 X3.2102 Y2.4299
G3 X3.2061 Y2.4352 I-0.1006 J-0.0741
G1 X3.1578 Y2.4939
G3 X3.1533 Y2.4991 I-0.0965 J-0.0794
G1 X3.1017 Y2.5551
G3 X3.0969 Y2.5601 I-0.092 J-0.0847
G1 X3.0423 Y2.6131
G3 X3.0373 Y2.6177 I-0.0871 J-0.0896
G1 X2.98 Y2.6677
G3 X2.9746 Y2.6722 I-0.0821 J-0.0942
G1 X2.9145 Y2.7189
G3 X2.9089 Y2.723 I-0.0768 J-0.0986
G1 X2.8465 Y2.7663
G3 X2.8407 Y2.7701 I-0.0712 J-0.1027
G1 X2.7758 Y2.81
G3 X2.7698 Y2.8134 I-0.0654 J-0.1065
G1 X2.7029 Y2.8496
G3 X2.6969 Y2.8526 I-0.0594 J-0.11
G1 X2.6281 Y2.8851
G3 X2.6218 Y2.8879 I-0.0534 J-0.113
G1 X2.5513 Y2.9166
G3 X2.5448 Y2.919 I-0.0471 J-0.1158
G1 X2.4727 Y2.9437
G3 X2.4662 Y2.9458 I-0.0405 J-0.1182
G1 X2.393 Y2.9665
G3 X2.3864 Y2.9681 I-0.034 J-0.1203
G1 X2.3121 Y2.9848
G3 X2.3054 Y2.9861 I-0.0274 J-0.122
G1 X2.2303 Y2.9987
G3 X2.2234 Y2.9997 I-0.0206 J-0.1233
G1 X2.1477 Y3.008
G3 X2.1409 Y3.0085 I-0.0137 J-0.1242
G1 X2.065 Y3.0128
G3 X2.0581 Y3.013 I-0.0069 J-0.1248
G1 X1.982 Y3.013
G3 X1.975 Y3.0128 I0 J-0.125
G1 X1.899 Y3.0086
G3 X1.8923 Y3.008 I0.0069 J-0.1248
G1 X1.8167 Y2.9997
G3 X1.8098 Y2.9987 I0.0137 J-0.1242
G1 X1.7346 Y2.9861
G3 X1.7278 Y2.9848 I0.0206 J-0.1233
G1 X1.6536 Y2.9681
G3 X1.6471 Y2.9665 I0.0274 J-0.122
G1 X1.5738 Y2.9458
G3 X1.5672 Y2.9437 I0.0339 J-0.1203
G1 X1.4953 Y2.919
G3 X1.4887 Y2.9166 I0.0406 J-0.1182
G1 X1.4182 Y2.8879
G3 X1.412 Y2.8852 I0.0471 J-0.1158
G1 X1.3432 Y2.8527
G3 X1.3371 Y2.8496 I0.0533 J-0.1131
G1 X1.2701 Y2.8134
G3 X1.2641 Y2.81 I0.0594 J-0.11
G1 X1.1993 Y2.7701
G3 X1.1935 Y2.7663 I0.0654 J-0.1065
G1 X1.131 Y2.723
G3 X1.1255 Y2.7189 I0.0712 J-0.1027
G1 X1.0654 Y2.6722
G3 X1.06 Y2.6677 I0.0768 J-0.0986
G1 X1.0026 Y2.6177
G3 X0.9975 Y2.613 I0.0821 J-0.0942
G1 X0.9431 Y2.56
G3 X0.9383 Y2.5551 I0.0872 J-0.0895
G1 X0.8868 Y2.4991
G3 X0.8823 Y2.494 I0.092 J-0.0847
G1 X0.8339 Y2.4353
G3 X0.8296 Y2.4298 I0.0964 J-0.0795
G1 X0.7846 Y2.3685
G3 X0.7807 Y2.3629 I0.1007 J-0.074
G1 X0.739 Y2.2991
G3 X0.7354 Y2.2932 I0.1046 J-0.0684
G1 X0.6973 Y2.2274
G3 X0.6941 Y2.2213 I0.1083 J-0.0625
G1 X0.6597 Y2.1534
G3 X0.6568 Y2.1473 I0.1116 J-0.0564
G1 X0.6262 Y2.0775
G3 X0.6236 Y2.071 I0.1144 J-0.0503
G1 X0.5969 Y1.9998
G3 X0.5947 Y1.9933 I0.1171 J-0.0438
G1 X0.572 Y1.9207
G3 X0.5701 Y1.9139 I0.1193 J-0.0373
G1 X0.5514 Y1.8402
G3 X0.55 Y1.8336 I0.1212 J-0.0306
G1 X0.5353 Y1.7589
G3 X0.5342 Y1.7521 I0.1227 J-0.024
G1 X0.5237 Y1.6768
G3 X0.5229 Y1.6698 I0.1238 J-0.0173
G1 X0.5167 Y1.594
G3 X0.5163 Y1.5871 I0.1246 J-0.0103
G1 X0.5142 Y1.511
G3 X0.5142 Y1.5076 I0.125 J-0.0034
G1 X0.5142 Y0.7227
G1 X0.5129 Y0.7042
G1 X0.51 Y0.6897
G1 X0.5054 Y0.6758
G1 X0.499 Y0.663
G1 X0.4909 Y0.6508
G1 X0.4812 Y0.6397
G1 X0.4703 Y0.6301
G1 X0.4583 Y0.6221
G1 X0.4451 Y0.6157
G1 X0.4312 Y0.6109
G1 X0.4169 Y0.6081
G1 X0.3983 Y0.6068
G1 X0.0474 Y0.6068
G3 X-0.0776 Y0.4818 I0 J-0.125
G1 X-0.0776 Y0.1268
G3 X0.0474 Y0.0018 I0.125 J0
G1 Z-0.3 F250
G1 X3.9926 Y0.0018 F250
G3 X4.1176 Y0.1268 I0 J0.125
G1 X4.1176 Y0.4818
G3 X3.9926 Y0.6068 I-0.125 J0
G1 X3.6416 Y0.6068
G1 X3.6231 Y0.6081
G1 X3.6088 Y0.6109
G1 X3.5948 Y0.6157
G1 X3.5818 Y0.6221
G1 X3.5699 Y0.6301
G1 X3.5588 Y0.6398
G1 X3.549 Y0.6509
G1 X3.541 Y0.6628
G1 X3.5346 Y0.6758
G1 X3.5299 Y0.6899
G1 X3.527 Y0.7042
G1 X3.5258 Y0.7227
G1 X3.5258 Y1.5076
G3 X3.5257 Y1.511 I-0.125 J0
G1 X3.5237 Y1.5871
G3 X3.5233 Y1.594 I-0.125 J-0.0034
G1 X3.517 Y1.6698
G3 X3.5162 Y1.6768 I-0.1246 J-0.0103
G1 X3.5057 Y1.7521
G3 X3.5046 Y1.7587 I-0.1238 J-0.0173
G1 X3.4901 Y1.8334
G3 X3.4886 Y1.8404 I-0.1227 J-0.0238
G1 X3.4699 Y1.9141
G3 X3.468 Y1.9207 I-0.1212 J-0.0308
G1 X3.4453 Y1.9933
G3 X3.443 Y1.9998 I-0.1193 J-0.0373
G1 X3.4164 Y2.071
G3 X3.4138 Y2.0774 I-0.1171 J-0.0438
G1 X3.3833 Y2.1471
G3 X3.3803 Y2.1535 I-0.1145 J-0.0501
G1 X3.3458 Y2.2214
G3 X3.3426 Y2.2274 I-0.1115 J-0.0565
G1 X3.3046 Y2.2932
G3 X3.3011 Y2.299 I-0.1083 J-0.0625
G1 X3.2595 Y2.3627
G3 X3.2554 Y2.3686 I-0.1047 J-0.0683
G1 X3.2102 Y2.4299
G3 X3.2061 Y2.4352 I-0.1006 J-0.0741
G1 X3.1578 Y2.4939
G3 X3.1533 Y2.4991 I-0.0965 J-0.0794
G1 X3.1017 Y2.5551
G3 X3.0969 Y2.5601 I-0.092 J-0.0847
G1 X3.0423 Y2.6131
G3 X3.0373 Y2.6177 I-0.0871 J-0.0896
G1 X2.98 Y2.6677
G3 X2.9746 Y2.6722 I-0.0821 J-0.0942
G1 X2.9145 Y2.7189
G3 X2.9089 Y2.723 I-0.0768 J-0.0986
G1 X2.8465 Y2.7663
G3 X2.8407 Y2.7701 I-0.0712 J-0.1027
G1 X2.7758 Y2.81
G3 X2.7698 Y2.8134 I-0.0654 J-0.1065
G1 X2.7029 Y2.8496
G3 X2.6969 Y2.8526 I-0.0594 J-0.11
G1 X2.6281 Y2.8851
G3 X2.6218 Y2.8879 I-0.0534 J-0.113
G1 X2.5513 Y2.9166
G3 X2.5448 Y2.919 I-0.0471 J-0.1158
G1 X2.4727 Y2.9437
G3 X2.4662 Y2.9458 I-0.0405 J-0.1182
G1 X2.393 Y2.9665
G3 X2.3864 Y2.9681 I-0.034 J-0.1203
G1 X2.3121 Y2.9848
G3 X2.3054 Y2.9861 I-0.0274 J-0.122
G1 X2.2303 Y2.9987
G3 X2.2234 Y2.9997 I-0.0206 J-0.1233
G1 X2.1477 Y3.008
G3 X2.1409 Y3.0085 I-0.0137 J-0.1242
G1 X2.065 Y3.0128
G3 X2.0581 Y3.013 I-0.0069 J-0.1248
G1 X1.982 Y3.013
G3 X1.975 Y3.0128 I0 J-0.125
G1 X1.899 Y3.0086
G3 X1.8923 Y3.008 I0.0069 J-0.1248
G1 X1.8167 Y2.9997
G3 X1.8098 Y2.9987 I0.0137 J-0.1242
G1 X1.7346 Y2.9861
G3 X1.7278 Y2.9848 I0.0206 J-0.1233
G1 X1.6536 Y2.9681
G3 X1.6471 Y2.9665 I0.0274 J-0.122
G1 X1.5738 Y2.9458
G3 X1.5672 Y2.9437 I0.0339 J-0.1203
G1 X1.4953 Y2.919
G3 X1.4887 Y2.9166 I0.0406 J-0.1182
G1 X1.4182 Y2.8879
G3 X1.412 Y2.8852 I0.0471 J-0.1158
G1 X1.3432 Y2.8527
G3 X1.3371 Y2.8496 I0.0533 J-0.1131
G1 X1.2701 Y2.8134
G3 X1.2641 Y2.81 I0.0594 J-0.11
G1 X1.1993 Y2.7701
G3 X1.1935 Y2.7663 I0.0654 J-0.1065
G1 X1.131 Y2.723
G3 X1.1255 Y2.7189 I0.0712 J-0.1027
G1 X1.0654 Y2.6722
G3 X1.06 Y2.6677 I0.0768 J-0.0986
G1 X1.0026 Y2.6177
G3 X0.9975 Y2.613 I0.0821 J-0.0942
G1 X0.9431 Y2.56
G3 X0.9383 Y2.5551 I0.0872 J-0.0895
G1 X0.8868 Y2.4991
G3 X0.8823 Y2.494 I0.092 J-0.0847
G1 X0.8339 Y2.4353
G3 X0.8296 Y2.4298 I0.0964 J-0.0795
G1 X0.7846 Y2.3685
G3 X0.7807 Y2.3629 I0.1007 J-0.074
G1 X0.739 Y2.2991
G3 X0.7354 Y2.2932 I0.1046 J-0.0684
G1 X0.6973 Y2.2274
G3 X0.6941 Y2.2213 I0.1083 J-0.0625
G1 X0.6597 Y2.1534
G3 X0.6568 Y2.1473 I0.1116 J-0.0564
G1 X0.6262 Y2.0775
G3 X0.6236 Y2.071 I0.1144 J-0.0503
G1 X0.5969 Y1.9998
G3 X0.5947 Y1.9933 I0.1171 J-0.0438
G1 X0.572 Y1.9207
G3 X0.5701 Y1.9139 I0.1193 J-0.0373
G1 X0.5514 Y1.8402
G3 X0.55 Y1.8336 I0.1212 J-0.0306
G1 X0.5353 Y1.7589
G3 X0.5342 Y1.7521 I0.1227 J-0.024
G1 X0.5237 Y1.6768
G3 X0.5229 Y1.6698 I0.1238 J-0.0173
G1 X0.5167 Y1.594
G3 X0.5163 Y1.5871 I0.1246 J-0.0103
G1 X0.5142 Y1.511
G3 X0.5142 Y1.5076 I0.125 J-0.0034
G1 X0.5142 Y0.7227
G1 X0.5129 Y0.7042
G1 X0.51 Y0.6897
G1 X0.5054 Y0.6758
G1 X0.499 Y0.663
G1 X0.4909 Y0.6508
G1 X0.4812 Y0.6397
G1 X0.4703 Y0.6301
G1 X0.4583 Y0.6221
G1 X0.4451 Y0.6157
G1 X0.4312 Y0.6109
G1 X0.4169 Y0.6081
G1 X0.3983 Y0.6068
G1 X0.0474 Y0.6068
G3 X-0.0776 Y0.4818 I0 J-0.125
G1 X-0.0776 Y0.1268
G3 X0.0474 Y0.0018 I0.125 J0
G1 Z-0.4 F250
G1 X3.9926 Y0.0018 F250
G3 X4.1176 Y0.1268 I0 J0.125
G1 X4.1176 Y0.4818
G3 X3.9926 Y0.6068 I-0.125 J0
G1 X3.6416 Y0.6068
G1 X3.6231 Y0.6081
G1 X3.6088 Y0.6109
G1 X3.5948 Y0.6157
G1 X3.5818 Y0.6221
G1 X3.5699 Y0.6301
G1 X3.5588 Y0.6398
G1 X3.549 Y0.6509
G1 X3.541 Y0.6628
G1 X3.5346 Y0.6758
G1 X3.5299 Y0.6899
G1 X3.527 Y0.7042
G1 X3.5258 Y0.7227
G1 X3.5258 Y1.5076
G3 X3.5257 Y1.511 I-0.125 J0
G1 X3.5237 Y1.5871
G3 X3.5233 Y1.594 I-0.125 J-0.0034
G1 X3.517 Y1.6698
G3 X3.5162 Y1.6768 I-0.1246 J-0.0103
G1 X3.5057 Y1.7521
G3 X3.5046 Y1.7587 I-0.1238 J-0.0173
G1 X3.4901 Y1.8334
G3 X3.4886 Y1.8404 I-0.1227 J-0.0238
G1 X3.4699 Y1.9141
G3 X3.468 Y1.9207 I-0.1212 J-0.0308
G1 X3.4453 Y1.9933
G3 X3.443 Y1.9998 I-0.1193 J-0.0373
G1 X3.4164 Y2.071
G3 X3.4138 Y2.0774 I-0.1171 J-0.0438
G1 X3.3833 Y2.1471
G3 X3.3803 Y2.1535 I-0.1145 J-0.0501
G1 X3.3458 Y2.2214
G3 X3.3426 Y2.2274 I-0.1115 J-0.0565
G1 X3.3046 Y2.2932
G3 X3.3011 Y2.299 I-0.1083 J-0.0625
G1 X3.2595 Y2.3627
G3 X3.2554 Y2.3686 I-0.1047 J-0.0683
G1 X3.2102 Y2.4299
G3 X3.2061 Y2.4352 I-0.1006 J-0.0741
G1 X3.1578 Y2.4939
G3 X3.1533 Y2.4991 I-0.0965 J-0.0794
G1 X3.1017 Y2.5551
G3 X3.0969 Y2.5601 I-0.092 J-0.0847
G1 X3.0423 Y2.6131
G3 X3.0373 Y2.6177 I-0.0871 J-0.0896
G1 X2.98 Y2.6677
G3 X2.9746 Y2.6722 I-0.0821 J-0.0942
G1 X2.9145 Y2.7189
G3 X2.9089 Y2.723 I-0.0768 J-0.0986
G1 X2.8465 Y2.7663
G3 X2.8407 Y2.7701 I-0.0712 J-0.1027
G1 X2.7758 Y2.81
G3 X2.7698 Y2.8134 I-0.0654 J-0.1065
G1 X2.7029 Y2.8496
G3 X2.6969 Y2.8526 I-0.0594 J-0.11
G1 X2.6281 Y2.8851
G3 X2.6218 Y2.8879 I-0.0534 J-0.113
G1 X2.5513 Y2.9166
G3 X2.5448 Y2.919 I-0.0471 J-0.1158
G1 X2.4727 Y2.9437
G3 X2.4662 Y2.9458 I-0.0405 J-0.1182
G1 X2.393 Y2.9665
G3 X2.3864 Y2.9681 I-0.034 J-0.1203
G1 X2.3121 Y2.9848
G3 X2.3054 Y2.9861 I-0.0274 J-0.122
G1 X2.2303 Y2.9987
G3 X2.2234 Y2.9997 I-0.0206 J-0.1233
G1 X2.1477 Y3.008
G3 X2.1409 Y3.0085 I-0.0137 J-0.1242
G1 X2.065 Y3.0128
G3 X2.0581 Y3.013 I-0.0069 J-0.1248
G1 X1.982 Y3.013
G3 X1.975 Y3.0128 I0 J-0.125
G1 X1.899 Y3.0086
G3 X1.8923 Y3.008 I0.0069 J-0.1248
G1 X1.8167 Y2.9997
G3 X1.8098 Y2.9987 I0.0137 J-0.1242
G1 X1.7346 Y2.9861
G3 X1.7278 Y2.9848 I0.0206 J-0.1233
G1 X1.6536 Y2.9681
G3 X1.6471 Y2.9665 I0.0274 J-0.122
G1 X1.5738 Y2.9458
G3 X1.5672 Y2.9437 I0.0339 J-0.1203
G1 X1.4953 Y2.919
G3 X1.4887 Y2.9166 I0.0406 J-0.1182
G1 X1.4182 Y2.8879
G3 X1.412 Y2.8852 I0.0471 J-0.1158
G1 X1.3432 Y2.8527
G3 X1.3371 Y2.8496 I0.0533 J-0.1131
G1 X1.2701 Y2.8134
G3 X1.2641 Y2.81 I0.0594 J-0.11
G1 X1.1993 Y2.7701
G3 X1.1935 Y2.7663 I0.0654 J-0.1065
G1 X1.131 Y2.723
G3 X1.1255 Y2.7189 I0.0712 J-0.1027
G1 X1.0654 Y2.6722
G3 X1.06 Y2.6677 I0.0768 J-0.0986
G1 X1.0026 Y2.6177
G3 X0.9975 Y2.613 I0.0821 J-0.0942
G1 X0.9431 Y2.56
G3 X0.9383 Y2.5551 I0.0872 J-0.0895
G1 X0.8868 Y2.4991
G3 X0.8823 Y2.494 I0.092 J-0.0847
G1 X0.8339 Y2.4353
G3 X0.8296 Y2.4298 I0.0964 J-0.0795
G1 X0.7846 Y2.3685
G3 X0.7807 Y2.3629 I0.1007 J-0.074
G1 X0.739 Y2.2991
G3 X0.7354 Y2.2932 I0.1046 J-0.0684
G1 X0.6973 Y2.2274
G3 X0.6941 Y2.2213 I0.1083 J-0.0625
G1 X0.6597 Y2.1534
G3 X0.6568 Y2.1473 I0.1116 J-0.0564
G1 X0.6262 Y2.0775
G3 X0.6236 Y2.071 I0.1144 J-0.0503
G1 X0.5969 Y1.9998
G3 X0.5947 Y1.9933 I0.1171 J-0.0438
G1 X0.572 Y1.9207
G3 X0.5701 Y1.9139 I0.1193 J-0.0373
G1 X0.5514 Y1.8402
G3 X0.55 Y1.8336 I0.1212 J-0.0306
G1 X0.5353 Y1.7589
G3 X0.5342 Y1.7521 I0.1227 J-0.024
G1 X0.5237 Y1.6768
G3 X0.5229 Y1.6698 I0.1238 J-0.0173
G1 X0.5167 Y1.594
G3 X0.5163 Y1.5871 I0.1246 J-0.0103
G1 X0.5142 Y1.511
G3 X0.5142 Y1.5076 I0.125 J-0.0034
G1 X0.5142 Y0.7227
G1 X0.5129 Y0.7042
G1 X0.51 Y0.6897
G1 X0.5054 Y0.6758
G1 X0.499 Y0.663
G1 X0.4909 Y0.6508
G1 X0.4812 Y0.6397
G1 X0.4703 Y0.6301
G1 X0.4583 Y0.6221
G1 X0.4451 Y0.6157
G1 X0.4312 Y0.6109
G1 X0.4169 Y0.6081
G1 X0.3983 Y0.6068
G1 X0.0474 Y0.6068
G3 X-0.0776 Y0.4818 I0 J-0.125
G1 X-0.0776 Y0.1268
G3 X0.0474 Y0.0018 I0.125 J0
G1 Z-0.5 F250
G1 X3.9926 Y0.0018 F250
G3 X4.1176 Y0.1268 I0 J0.125
G1 X4.1176 Y0.4818
G3 X3.9926 Y0.6068 I-0.125 J0
G1 X3.6416 Y0.6068
G1 X3.6231 Y0.6081
G1 X3.6088 Y0.6109
G1 X3.5948 Y0.6157
G1 X3.5818 Y0.6221
G1 X3.5699 Y0.6301
G1 X3.5588 Y0.6398
G1 X3.549 Y0.6509
G1 X3.541 Y0.6628
G1 X3.5346 Y0.6758
G1 X3.5299 Y0.6899
G1 X3.527 Y0.7042
G1 X3.5258 Y0.7227
G1 X3.5258 Y1.5076
G3 X3.5257 Y1.511 I-0.125 J0
G1 X3.5237 Y1.5871
G3 X3.5233 Y1.594 I-0.125 J-0.0034
G1 X3.517 Y1.6698
G3 X3.5162 Y1.6768 I-0.1246 J-0.0103
G1 X3.5057 Y1.7521
G3 X3.5046 Y1.7587 I-0.1238 J-0.0173
G1 X3.4901 Y1.8334
G3 X3.4886 Y1.8404 I-0.1227 J-0.0238
G1 X3.4699 Y1.9141
G3 X3.468 Y1.9207 I-0.1212 J-0.0308
G1 X3.4453 Y1.9933
G3 X3.443 Y1.9998 I-0.1193 J-0.0373
G1 X3.4164 Y2.071
G3 X3.4138 Y2.0774 I-0.1171 J-0.0438
G1 X3.3833 Y2.1471
G3 X3.3803 Y2.1535 I-0.1145 J-0.0501
G1 X3.3458 Y2.2214
G3 X3.3426 Y2.2274 I-0.1115 J-0.0565
G1 X3.3046 Y2.2932
G3 X3.3011 Y2.299 I-0.1083 J-0.0625
G1 X3.2595 Y2.3627
G3 X3.2554 Y2.3686 I-0.1047 J-0.0683
G1 X3.2102 Y2.4299
G3 X3.2061 Y2.4352 I-0.1006 J-0.0741
G1 X3.1578 Y2.4939
G3 X3.1533 Y2.4991 I-0.0965 J-0.0794
G1 X3.1017 Y2.5551
G3 X3.0969 Y2.5601 I-0.092 J-0.0847
G1 X3.0423 Y2.6131
G3 X3.0373 Y2.6177 I-0.0871 J-0.0896
G1 X2.98 Y2.6677
G3 X2.9746 Y2.6722 I-0.0821 J-0.0942
G1 X2.9145 Y2.7189
G3 X2.9089 Y2.723 I-0.0768 J-0.0986
G1 X2.8465 Y2.7663
G3 X2.8407 Y2.7701 I-0.0712 J-0.1027
G1 X2.7758 Y2.81
G3 X2.7698 Y2.8134 I-0.0654 J-0.1065
G1 X2.7029 Y2.8496
G3 X2.6969 Y2.8526 I-0.0594 J-0.11
G1 X2.6281 Y2.8851
G3 X2.6218 Y2.8879 I-0.0534 J-0.113
G1 X2.5513 Y2.9166
G3 X2.5448 Y2.919 I-0.0471 J-0.1158
G1 X2.4727 Y2.9437
G3 X2.4662 Y2.9458 I-0.0405 J-0.1182
G1 X2.393 Y2.9665
G3 X2.3864 Y2.9681 I-0.034 J-0.1203
G1 X2.3121 Y2.9848
G3 X2.3054 Y2.9861 I-0.0274 J-0.122
G1 X2.2303 Y2.9987
G3 X2.2234 Y2.9997 I-0.0206 J-0.1233
G1 X2.1477 Y3.008
G3 X2.1409 Y3.0085 I-0.0137 J-0.1242
G1 X2.065 Y3.0128
G3 X2.0581 Y3.013 I-0.0069 J-0.1248
G1 X1.982 Y3.013
G3 X1.975 Y3.0128 I0 J-0.125
G1 X1.899 Y3.0086
G3 X1.8923 Y3.008 I0.0069 J-0.1248
G1 X1.8167 Y2.9997
G3 X1.8098 Y2.9987 I0.0137 J-0.1242
G1 X1.7346 Y2.9861
G3 X1.7278 Y2.9848 I0.0206 J-0.1233
G1 X1.6536 Y2.9681
G3 X1.6471 Y2.9665 I0.0274 J-0.122
G1 X1.5738 Y2.9458
G3 X1.5672 Y2.9437 I0.0339 J-0.1203
G1 X1.4953 Y2.919
G3 X1.4887 Y2.9166 I0.0406 J-0.1182
G1 X1.4182 Y2.8879
G3 X1.412 Y2.8852 I0.0471 J-0.1158
G1 X1.3432 Y2.8527
G3 X1.3371 Y2.8496 I0.0533 J-0.1131
G1 X1.2701 Y2.8134
G3 X1.2641 Y2.81 I0.0594 J-0.11
G1 X1.1993 Y2.7701
G3 X1.1935 Y2.7663 I0.0654 J-0.1065
G1 X1.131 Y2.723
G3 X1.1255 Y2.7189 I0.0712 J-0.1027
G1 X1.0654 Y2.6722
G3 X1.06 Y2.6677 I0.0768 J-0.0986
G1 X1.0026 Y2.6177
G3 X0.9975 Y2.613 I0.0821 J-0.0942
G1 X0.9431 Y2.56
G3 X0.9383 Y2.5551 I0.0872 J-0.0895
G1 X0.8868 Y2.4991
G3 X0.8823 Y2.494 I0.092 J-0.0847
G1 X0.8339 Y2.4353
G3 X0.8296 Y2.4298 I0.0964 J-0.0795
G1 X0.7846 Y2.3685
G3 X0.7807 Y2.3629 I0.1007 J-0.074
G1 X0.739 Y2.2991
G3 X0.7354 Y2.2932 I0.1046 J-0.0684
G1 X0.6973 Y2.2274
G3 X0.6941 Y2.2213 I0.1083 J-0.0625
G1 X0.6597 Y2.1534
G3 X0.6568 Y2.1473 I0.1116 J-0.0564
G1 X0.6262 Y2.0775
G3 X0.6236 Y2.071 I0.1144 J-0.0503
G1 X0.5969 Y1.9998
G3 X0.5947 Y1.9933 I0.1171 J-0.0438
G1 X0.572 Y1.9207
G3 X0.5701 Y1.9139 I0.1193 J-0.0373
G1 X0.5514 Y1.8402
G3 X0.55 Y1.8336 I0.1212 J-0.0306
G1 X0.5353 Y1.7589
G3 X0.5342 Y1.7521 I0.1227 J-0.024
G1 X0.5237 Y1.6768
G3 X0.5229 Y1.6698 I0.1238 J-0.0173
G1 X0.5167 Y1.594
G3 X0.5163 Y1.5871 I0.1246 J-0.0103
G1 X0.5142 Y1.511
G3 X0.5142 Y1.5076 I0.125 J-0.0034
G1 X0.5142 Y0.7227
G1 X0.5129 Y0.7042
G1 X0.51 Y0.6897
G1 X0.5054 Y0.6758
G1 X0.499 Y0.663
G1 X0.4909 Y0.6508
G1 X0.4812 Y0.6397
G1 X0.4703 Y0.6301
G1 X0.4583 Y0.6221
G1 X0.4451 Y0.6157
G1 X0.4312 Y0.6109
G1 X0.4169 Y0.6081
G1 X0.3983 Y0.6068
G1 X0.0474 Y0.6068
G3 X-0.0776 Y0.4818 I0 J-0.125
G1 X-0.0776 Y0.1268
G3 X0.0474 Y0.0018 I0.125 J0
G1 Z-0.6 F250
G1 X3.9926 Y0.0018 F250
G3 X4.1176 Y0.1268 I0 J0.125
G1 X4.1176 Y0.4818
G3 X3.9926 Y0.6068 I-0.125 J0
G1 X3.6416 Y0.6068
G1 X3.6231 Y0.6081
G1 X3.6088 Y0.6109
G1 X3.5948 Y0.6157
G1 X3.5818 Y0.6221
G1 X3.5699 Y0.6301
G1 X3.5588 Y0.6398
G1 X3.549 Y0.6509
G1 X3.541 Y0.6628
G1 X3.5346 Y0.6758
G1 X3.5299 Y0.6899
G1 X3.527 Y0.7042
G1 X3.5258 Y0.7227
G1 X3.5258 Y1.5076
G3 X3.5257 Y1.511 I-0.125 J0
G1 X3.5237 Y1.5871
G3 X3.5233 Y1.594 I-0.125 J-0.0034
G1 X3.517 Y1.6698
G3 X3.5162 Y1.6768 I-0.1246 J-0.0103
G1 X3.5057 Y1.7521
G3 X3.5046 Y1.7587 I-0.1238 J-0.0173
G1 X3.4901 Y1.8334
G3 X3.4886 Y1.8404 I-0.1227 J-0.0238
G1 X3.4699 Y1.9141
G3 X3.468 Y1.9207 I-0.1212 J-0.0308
G1 X3.4453 Y1.9933
G3 X3.443 Y1.9998 I-0.1193 J-0.0373
G1 X3.4164 Y2.071
G3 X3.4138 Y2.0774 I-0.1171 J-0.0438
G1 X3.3833 Y2.1471
G3 X3.3803 Y2.1535 I-0.1145 J-0.0501
G1 X3.3458 Y2.2214
G3 X3.3426 Y2.2274 I-0.1115 J-0.0565
G1 X3.3046 Y2.2932
G3 X3.3011 Y2.299 I-0.1083 J-0.0625
G1 X3.2595 Y2.3627
G3 X3.2554 Y2.3686 I-0.1047 J-0.0683
G1 X3.2102 Y2.4299
G3 X3.2061 Y2.4352 I-0.1006 J-0.0741
G1 X3.1578 Y2.4939
G3 X3.1533 Y2.4991 I-0.0965 J-0.0794
G1 X3.1017 Y2.5551
G3 X3.0969 Y2.5601 I-0.092 J-0.0847
G1 X3.0423 Y2.6131
G3 X3.0373 Y2.6177 I-0.0871 J-0.0896
G1 X2.98 Y2.6677
G3 X2.9746 Y2.6722 I-0.0821 J-0.0942
G1 X2.9145 Y2.7189
G3 X2.9089 Y2.723 I-0.0768 J-0.0986
G1 X2.8465 Y2.7663
G3 X2.8407 Y2.7701 I-0.0712 J-0.1027
G1 X2.7758 Y2.81
G3 X2.7698 Y2.8134 I-0.0654 J-0.1065
G1 X2.7029 Y2.8496
G3 X2.6969 Y2.8526 I-0.0594 J-0.11
G1 X2.6281 Y2.8851
G3 X2.6218 Y2.8879 I-0.0534 J-0.113
G1 X2.5513 Y2.9166
G3 X2.5448 Y2.919 I-0.0471 J-0.1158
G1 X2.4727 Y2.9437
G3 X2.4662 Y2.9458 I-0.0405 J-0.1182
G1 X2.393 Y2.9665
G3 X2.3864 Y2.9681 I-0.034 J-0.1203
G1 X2.3121 Y2.9848
G3 X2.3054 Y2.9861 I-0.0274 J-0.122
G1 X2.2303 Y2.9987
G3 X2.2234 Y2.9997 I-0.0206 J-0.1233
G1 X2.1477 Y3.008
G3 X2.1409 Y3.0085 I-0.0137 J-0.1242
G1 X2.065 Y3.0128
G3 X2.0581 Y3.013 I-0.0069 J-0.1248
G1 X1.982 Y3.013
G3 X1.975 Y3.0128 I0 J-0.125
G1 X1.899 Y3.0086
G3 X1.8923 Y3.008 I0.0069 J-0.1248
G1 X1.8167 Y2.9997
G3 X1.8098 Y2.9987 I0.0137 J-0.1242
G1 X1.7346 Y2.9861
G3 X1.7278 Y2.9848 I0.0206 J-0.1233
G1 X1.6536 Y2.9681
G3 X1.6471 Y2.9665 I0.0274 J-0.122
G1 X1.5738 Y2.9458
G3 X1.5672 Y2.9437 I0.0339 J-0.1203
G1 X1.4953 Y2.919
G3 X1.4887 Y2.9166 I0.0406 J-0.1182
G1 X1.4182 Y2.8879
G3 X1.412 Y2.8852 I0.0471 J-0.1158
G1 X1.3432 Y2.8527
G3 X1.3371 Y2.8496 I0.0533 J-0.1131
G1 X1.2701 Y2.8134
G3 X1.2641 Y2.81 I0.0594 J-0.11
G1 X1.1993 Y2.7701
G3 X1.1935 Y2.7663 I0.0654 J-0.1065
G1 X1.131 Y2.723
G3 X1.1255 Y2.7189 I0.0712 J-0.1027
G1 X1.0654 Y2.6722
G3 X1.06 Y2.6677 I0.0768 J-0.0986
G1 X1.0026 Y2.6177
G3 X0.9975 Y2.613 I0.0821 J-0.0942
G1 X0.9431 Y2.56
G3 X0.9383 Y2.5551 I0.0872 J-0.0895
G1 X0.8868 Y2.4991
G3 X0.8823 Y2.494 I0.092 J-0.0847
G1 X0.8339 Y2.4353
G3 X0.8296 Y2.4298 I0.0964 J-0.0795
G1 X0.7846 Y2.3685
G3 X0.7807 Y2.3629 I0.1007 J-0.074
G1 X0.739 Y2.2991
G3 X0.7354 Y2.2932 I0.1046 J-0.0684
G1 X0.6973 Y2.2274
G3 X0.6941 Y2.2213 I0.1083 J-0.0625
G1 X0.6597 Y2.1534
G3 X0.6568 Y2.1473 I0.1116 J-0.0564
G1 X0.6262 Y2.0775
G3 X0.6236 Y2.071 I0.1144 J-0.0503
G1 X0.5969 Y1.9998
G3 X0.5947 Y1.9933 I0.1171 J-0.0438
G1 X0.572 Y1.9207
G3 X0.5701 Y1.9139 I0.1193 J-0.0373
G1 X0.5514 Y1.8402
G3 X0.55 Y1.8336 I0.1212 J-0.0306
G1 X0.5353 Y1.7589
G3 X0.5342 Y1.7521 I0.1227 J-0.024
G1 X0.5237 Y1.6768
G3 X0.5229 Y1.6698 I0.1238 J-0.0173
G1 X0.5167 Y1.594
G3 X0.5163 Y1.5871 I0.1246 J-0.0103
G1 X0.5142 Y1.511
G3 X0.5142 Y1.5076 I0.125 J-0.0034
G1 X0.5142 Y0.7227
G1 X0.5129 Y0.7042
G1 X0.51 Y0.6897
G1 X0.5054 Y0.6758
G1 X0.499 Y0.663
G1 X0.4909 Y0.6508
G1 X0.4812 Y0.6397
G1 X0.4703 Y0.6301
G1 X0.4583 Y0.6221
G1 X0.4451 Y0.6157
G1 X0.4312 Y0.6109
G1 X0.4169 Y0.6081
G1 X0.3983 Y0.6068
G1 X0.0474 Y0.6068
G3 X-0.0776 Y0.4818 I0 J-0.125
G1 X-0.0776 Y0.1268
G3 X0.0474 Y0.0018 I0.125 J0
G1 Z-0.7 F250
G1 X3.9926 Y0.0018 F250
G3 X4.1176 Y0.1268 I0 J0.125
G1 X4.1176 Y0.4818
G3 X3.9926 Y0.6068 I-0.125 J0
G1 X3.6416 Y0.6068
G1 X3.6231 Y0.6081
G1 X3.6088 Y0.6109
G1 X3.5948 Y0.6157
G1 X3.5818 Y0.6221
G1 X3.5699 Y0.6301
G1 X3.5588 Y0.6398
G1 X3.549 Y0.6509
G1 X3.541 Y0.6628
G1 X3.5346 Y0.6758
G1 X3.5299 Y0.6899
G1 X3.527 Y0.7042
G1 X3.5258 Y0.7227
G1 X3.5258 Y1.5076
G3 X3.5257 Y1.511 I-0.125 J0
G1 X3.5237 Y1.5871
G3 X3.5233 Y1.594 I-0.125 J-0.0034
G1 X3.517 Y1.6698
G3 X3.5162 Y1.6768 I-0.1246 J-0.0103
G1 X3.5057 Y1.7521
G3 X3.5046 Y1.7587 I-0.1238 J-0.0173
G1 X3.4901 Y1.8334
G3 X3.4886 Y1.8404 I-0.1227 J-0.0238
G1 X3.4699 Y1.9141
G3 X3.468 Y1.9207 I-0.1212 J-0.0308
G1 X3.4453 Y1.9933
G3 X3.443 Y1.9998 I-0.1193 J-0.0373
G1 X3.4164 Y2.071
G3 X3.4138 Y2.0774 I-0.1171 J-0.0438
G1 X3.3833 Y2.1471
G3 X3.3803 Y2.1535 I-0.1145 J-0.0501
G1 X3.3458 Y2.2214
G3 X3.3426 Y2.2274 I-0.1115 J-0.0565
G1 X3.3046 Y2.2932
G3 X3.3011 Y2.299 I-0.1083 J-0.0625
G1 X3.2595 Y2.3627
G3 X3.2554 Y2.3686 I-0.1047 J-0.0683
G1 X3.2102 Y2.4299
G3 X3.2061 Y2.4352 I-0.1006 J-0.0741
G1 X3.1578 Y2.4939
G3 X3.1533 Y2.4991 I-0.0965 J-0.0794
G1 X3.1017 Y2.5551
G3 X3.0969 Y2.5601 I-0.092 J-0.0847
G1 X3.0423 Y2.6131
G3 X3.0373 Y2.6177 I-0.0871 J-0.0896
G1 X2.98 Y2.6677
G3 X2.9746 Y2.6722 I-0.0821 J-0.0942
G1 X2.9145 Y2.7189
G3 X2.9089 Y2.723 I-0.0768 J-0.0986
G1 X2.8465 Y2.7663
G3 X2.8407 Y2.7701 I-0.0712 J-0.1027
G1 X2.7758 Y2.81
G3 X2.7698 Y2.8134 I-0.0654 J-0.1065
G1 X2.7029 Y2.8496
G3 X2.6969 Y2.8526 I-0.0594 J-0.11
G1 X2.6281 Y2.8851
G3 X2.6218 Y2.8879 I-0.0534 J-0.113
G1 X2.5513 Y2.9166
G3 X2.5448 Y2.919 I-0.0471 J-0.1158
G1 X2.4727 Y2.9437
G3 X2.4662 Y2.9458 I-0.0405 J-0.1182
G1 X2.393 Y2.9665
G3 X2.3864 Y2.9681 I-0.034 J-0.1203
G1 X2.3121 Y2.9848
G3 X2.3054 Y2.9861 I-0.0274 J-0.122
G1 X2.2303 Y2.9987
G3 X2.2234 Y2.9997 I-0.0206 J-0.1233
G1 X2.1477 Y3.008
G3 X2.1409 Y3.0085 I-0.0137 J-0.1242
G1 X2.065 Y3.0128
G3 X2.0581 Y3.013 I-0.0069 J-0.1248
G1 X1.982 Y3.013
G3 X1.975 Y3.0128 I0 J-0.125
G1 X1.899 Y3.0086
G3 X1.8923 Y3.008 I0.0069 J-0.1248
G1 X1.8167 Y2.9997
G3 X1.8098 Y2.9987 I0.0137 J-0.1242
G1 X1.7346 Y2.9861
G3 X1.7278 Y2.9848 I0.0206 J-0.1233
G1 X1.6536 Y2.9681
G3 X1.6471 Y2.9665 I0.0274 J-0.122
G1 X1.5738 Y2.9458
G3 X1.5672 Y2.9437 I0.0339 J-0.1203
G1 X1.4953 Y2.919
G3 X1.4887 Y2.9166 I0.0406 J-0.1182
G1 X1.4182 Y2.8879
G3 X1.412 Y2.8852 I0.0471 J-0.1158
G1 X1.3432 Y2.8527
G3 X1.3371 Y2.8496 I0.0533 J-0.1131
G1 X1.2701 Y2.8134
G3 X1.2641 Y2.81 I0.0594 J-0.11
G1 X1.1993 Y2.7701
G3 X1.1935 Y2.7663 I0.0654 J-0.1065
G1 X1.131 Y2.723
G3 X1.1255 Y2.7189 I0.0712 J-0.1027
G1 X1.0654 Y2.6722
G3 X1.06 Y2.6677 I0.0768 J-0.0986
G1 X1.0026 Y2.6177
G3 X0.9975 Y2.613 I0.0821 J-0.0942
G1 X0.9431 Y2.56
G3 X0.9383 Y2.5551 I0.0872 J-0.0895
G1 X0.8868 Y2.4991
G3 X0.8823 Y2.494 I0.092 J-0.0847
G1 X0.8339 Y2.4353
G3 X0.8296 Y2.4298 I0.0964 J-0.0795
G1 X0.7846 Y2.3685
G3 X0.7807 Y2.3629 I0.1007 J-0.074
G1 X0.739 Y2.2991
G3 X0.7354 Y2.2932 I0.1046 J-0.0684
G1 X0.6973 Y2.2274
G3 X0.6941 Y2.2213 I0.1083 J-0.0625
G1 X0.6597 Y2.1534
G3 X0.6568 Y2.1473 I0.1116 J-0.0564
G1 X0.6262 Y2.0775
G3 X0.6236 Y2.071 I0.1144 J-0.0503
G1 X0.5969 Y1.9998
G3 X0.5947 Y1.9933 I0.1171 J-0.0438
G1 X0.572 Y1.9207
G3 X0.5701 Y1.9139 I0.1193 J-0.0373
G1 X0.5514 Y1.8402
G3 X0.55 Y1.8336 I0.1212 J-0.0306
G1 X0.5353 Y1.7589
G3 X0.5342 Y1.7521 I0.1227 J-0.024
G1 X0.5237 Y1.6768
G3 X0.5229 Y1.6698 I0.1238 J-0.0173
G1 X0.5167 Y1.594
G3 X0.5163 Y1.5871 I0.1246 J-0.0103
G1 X0.5142 Y1.511
G3 X0.5142 Y1.5076 I0.125 J-0.0034
G1 X0.5142 Y0.7227
G1 X0.5129 Y0.7042
G1 X0.51 Y0.6897
G1 X0.5054 Y0.6758
G1 X0.499 Y0.663
G1 X0.4909 Y0.6508
G1 X0.4812 Y0.6397
G1 X0.4703 Y0.6301
G1 X0.4583 Y0.6221
G1 X0.4451 Y0.6157
G1 X0.4312 Y0.6109
G1 X0.4169 Y0.6081
G1 X0.3983 Y0.6068
G1 X0.0474 Y0.6068
G3 X-0.0776 Y0.4818 I0 J-0.125
G1 X-0.0776 Y0.1268
G3 X0.0474 Y0.0018 I0.125 J0
G1 Z-0.8 F250
G1 X3.9926 Y0.0018 F250
G3 X4.1176 Y0.1268 I0 J0.125
G1 X4.1176 Y0.4818
G3 X3.9926 Y0.6068 I-0.125 J0
G1 X3.6416 Y0.6068
G1 X3.6231 Y0.6081
G1 X3.6088 Y0.6109
G1 X3.5948 Y0.6157
G1 X3.5818 Y0.6221
G1 X3.5699 Y0.6301
G1 X3.5588 Y0.6398
G1 X3.549 Y0.6509
G1 X3.541 Y0.6628
G1 X3.5346 Y0.6758
G1 X3.5299 Y0.6899
G1 X3.527 Y0.7042
G1 X3.5258 Y0.7227
G1 X3.5258 Y1.5076
G3 X3.5257 Y1.511 I-0.125 J0
G1 X3.5237 Y1.5871
G3 X3.5233 Y1.594 I-0.125 J-0.0034
G1 X3.517 Y1.6698
G3 X3.5162 Y1.6768 I-0.1246 J-0.0103
G1 X3.5057 Y1.7521
G3 X3.5046 Y1.7587 I-0.1238 J-0.0173
G1 X3.4901 Y1.8334
G3 X3.4886 Y1.8404 I-0.1227 J-0.0238
G1 X3.4699 Y1.9141
G3 X3.468 Y1.9207 I-0.1212 J-0.0308
G1 X3.4453 Y1.9933
G3 X3.443 Y1.9998 I-0.1193 J-0.0373
G1 X3.4164 Y2.071
G3 X3.4138 Y2.0774 I-0.1171 J-0.0438
G1 X3.3833 Y2.1471
G3 X3.3803 Y2.1535 I-0.1145 J-0.0501
G1 X3.3458 Y2.2214
G3 X3.3426 Y2.2274 I-0.1115 J-0.0565
G1 X3.3046 Y2.2932
G3 X3.3011 Y2.299 I-0.1083 J-0.0625
G1 X3.2595 Y2.3627
G3 X3.2554 Y2.3686 I-0.1047 J-0.0683
G1 X3.2102 Y2.4299
G3 X3.2061 Y2.4352 I-0.1006 J-0.0741
G1 X3.1578 Y2.4939
G3 X3.1533 Y2.4991 I-0.0965 J-0.0794
G1 X3.1017 Y2.5551
G3 X3.0969 Y2.5601 I-0.092 J-0.0847
G1 X3.0423 Y2.6131
G3 X3.0373 Y2.6177 I-0.0871 J-0.0896
G1 X2.98 Y2.6677
G3 X2.9746 Y2.6722 I-0.0821 J-0.0942
G1 X2.9145 Y2.7189
G3 X2.9089 Y2.723 I-0.0768 J-0.0986
G1 X2.8465 Y2.7663
G3 X2.8407 Y2.7701 I-0.0712 J-0.1027
G1 X2.7758 Y2.81
G3 X2.7698 Y2.8134 I-0.0654 J-0.1065
G1 X2.7029 Y2.8496
G3 X2.6969 Y2.8526 I-0.0594 J-0.11
G1 X2.6281 Y2.8851
G3 X2.6218 Y2.8879 I-0.0534 J-0.113
G1 X2.5513 Y2.9166
G3 X2.5448 Y2.919 I-0.0471 J-0.1158
G1 X2.4727 Y2.9437
G3 X2.4662 Y2.9458 I-0.0405 J-0.1182
G1 X2.393 Y2.9665
G3 X2.3864 Y2.9681 I-0.034 J-0.1203
G1 X2.3121 Y2.9848
G3 X2.3054 Y2.9861 I-0.0274 J-0.122
G1 X2.2303 Y2.9987
G3 X2.2234 Y2.9997 I-0.0206 J-0.1233
G1 X2.1477 Y3.008
G3 X2.1409 Y3.0085 I-0.0137 J-0.1242
G1 X2.065 Y3.0128
G3 X2.0581 Y3.013 I-0.0069 J-0.1248
G1 X1.982 Y3.013
G3 X1.975 Y3.0128 I0 J-0.125
G1 X1.899 Y3.0086
G3 X1.8923 Y3.008 I0.0069 J-0.1248
G1 X1.8167 Y2.9997
G3 X1.8098 Y2.9987 I0.0137 J-0.1242
G1 X1.7346 Y2.9861
G3 X1.7278 Y2.9848 I0.0206 J-0.1233
G1 X1.6536 Y2.9681
G3 X1.6471 Y2.9665 I0.0274 J-0.122
G1 X1.5738 Y2.9458
G3 X1.5672 Y2.9437 I0.0339 J-0.1203
G1 X1.4953 Y2.919
G3 X1.4887 Y2.9166 I0.0406 J-0.1182
G1 X1.4182 Y2.8879
G3 X1.412 Y2.8852 I0.0471 J-0.1158
G1 X1.3432 Y2.8527
G3 X1.3371 Y2.8496 I0.0533 J-0.1131
G1 X1.2701 Y2.8134
G3 X1.2641 Y2.81 I0.0594 J-0.11
G1 X1.1993 Y2.7701
G3 X1.1935 Y2.7663 I0.0654 J-0.1065
G1 X1.131 Y2.723
G3 X1.1255 Y2.7189 I0.0712 J-0.1027
G1 X1.0654 Y2.6722
G3 X1.06 Y2.6677 I0.0768 J-0.0986
G1 X1.0026 Y2.6177
G3 X0.9975 Y2.613 I0.0821 J-0.0942
G1 X0.9431 Y2.56
G3 X0.9383 Y2.5551 I0.0872 J-0.0895
G1 X0.8868 Y2.4991
G3 X0.8823 Y2.494 I0.092 J-0.0847
G1 X0.8339 Y2.4353
G3 X0.8296 Y2.4298 I0.0964 J-0.0795
G1 X0.7846 Y2.3685
G3 X0.7807 Y2.3629 I0.1007 J-0.074
G1 X0.739 Y2.2991
G3 X0.7354 Y2.2932 I0.1046 J-0.0684
G1 X0.6973 Y2.2274
G3 X0.6941 Y2.2213 I0.1083 J-0.0625
G1 X0.6597 Y2.1534
G3 X0.6568 Y2.1473 I0.1116 J-0.0564
G1 X0.6262 Y2.0775
G3 X0.6236 Y2.071 I0.1144 J-0.0503
G1 X0.5969 Y1.9998
G3 X0.5947 Y1.9933 I0.1171 J-0.0438
G1 X0.572 Y1.9207
G3 X0.5701 Y1.9139 I0.1193 J-0.0373
G1 X0.5514 Y1.8402
G3 X0.55 Y1.8336 I0.1212 J-0.0306
G1 X0.5353 Y1.7589
G3 X0.5342 Y1.7521 I0.1227 J-0.024
G1 X0.5237 Y1.6768
G3 X0.5229 Y1.6698 I0.1238 J-0.0173
G1 X0.5167 Y1.594
G3 X0.5163 Y1.5871 I0.1246 J-0.0103
G1 X0.5142 Y1.511
G3 X0.5142 Y1.5076 I0.125 J-0.0034
G1 X0.5142 Y0.7227
G1 X0.5129 Y0.7042
G1 X0.51 Y0.6897
G1 X0.5054 Y0.6758
G1 X0.499 Y0.663
G1 X0.4909 Y0.6508
G1 X0.4812 Y0.6397
G1 X0.4703 Y0.6301
G1 X0.4583 Y0.6221
G1 X0.4451 Y0.6157
G1 X0.4312 Y0.6109
G1 X0.4169 Y0.6081
G1 X0.3983 Y0.6068
G1 X0.0474 Y0.6068
G3 X-0.0776 Y0.4818 I0 J-0.125
G1 X-0.0776 Y0.1268
G3 X0.0474 Y0.0018 I0.125 J0
G0 Z0.15
M5
M30
